X:68
T:Comin' Thro' The Rye
S:American Veteran Fifer #68
M:2/4
L:1/8
Q:1/8=180
K:G 
%%MIDI program 72
%%MIDI transpose 8
%%MIDI ratio 3 1
A>A A<f | e>d e<f | A>A B>A | d4 |
A>A a>f | e>d e<f | A>A B>A | d4 :|
|: a>f d<f | e>d e<f | a>f g<a | b2>> b2| 
a>f g>e | f>d e<f | A>A B>A | d4 :|


